svg/fluentui-system-icons/ic_fluent_text_case_title_24_filled.svg

<svg width="24" height="24" viewBox="0 0 24 24" fill="none" xmlns="http://www.w3.org/2000/svg">
<path d="M8.4427 3.41559C8.30286 3.0215 7.93257 2.75603 7.51445 2.7501C7.09632 2.74417 6.71866 2.99904 6.5677 3.38901L0.567701 18.889C0.368329 19.404 0.624231 19.9832 1.13927 20.1826C1.65432 20.3819 2.23347 20.126 2.43284 19.611L3.83064 16L10.786 16L12.0578 19.5844C12.2425 20.1049 12.8142 20.3771 13.3347 20.1924C13.8552 20.0077 14.1274 19.4361 13.9427 18.9156L8.4427 3.41559ZM4.60484 14L7.4595 6.62545L10.0763 14L4.60484 14ZM16 3C16.5523 3 17 3.44772 17 4V11.6187C17.5883 11.2252 18.2714 11 19 11C21.2091 11 23 13.0707 23 15.625C23 18.1793 21.2091 20.25 19 20.25C18.2467 20.25 17.5421 20.0092 16.9405 19.5906C16.8012 19.9752 16.4327 20.25 16 20.25C15.4477 20.25 15 19.8023 15 19.25V4C15 3.44772 15.4477 3 16 3ZM19 18.25C19.8419 18.25 21 17.3572 21 15.625C21 13.8928 19.8419 13 19 13C18.1581 13 17 13.8928 17 15.625C17 17.3572 18.1581 18.25 19 18.25Z" fill="#212121"/>
</svg>

<svg xmlns="http://www.w3.org/2000/svg" width="24" height="24"><path d="M8.443 3.416a1 1 0 0 0-1.875-.027l-6 15.5a1 1 0 0 0 1.865.722L3.83 16h6.955l1.272 3.584a1 1 0 0 0 1.885-.668l-5.5-15.5ZM4.605 14l2.854-7.375L10.076 14H4.605ZM16 3a1 1 0 0 1 1 1v7.619A3.578 3.578 0 0 1 19 11c2.21 0 4 2.07 4 4.625 0 2.554-1.79 4.625-4 4.625a3.58 3.58 0 0 1-2.06-.66 1 1 0 0 1-1.94-.34V4a1 1 0 0 1 1-1Zm3 15.25c.842 0 2-.893 2-2.625S19.842 13 19 13c-.842 0-2 .893-2 2.625s1.158 2.625 2 2.625Z"/></svg>
